build/Karasa-Jaga/scalable/apps/ssudoku-symbolic.svg

<svg height="16" width="16" xmlns="http://www.w3.org/2000/svg"><path d="m.38351057.28375012c-.0344086.0323385-.0674217.0653521-.0997605.0997605v15.21996638c.0342347.03677.0631819.07834.0997605.112773h15.23297843c.03441-.03234.06742-.06535.09976-.09976v-15.21996715c-.03424-.0367666-.06318-.0783384-.09976-.11277273zm1.50941813 1.60917858h1.6655649 1.6655649v3.3311298h-3.3311298v-1.6655649zm4.4415064 0h3.3311298v1.7349635 1.5961663h-1.5961664-1.7349634zm4.4415059 0h.624587 2.706543v2.7412423.5898875h-.589887-2.741243v-2.7065429zm-8.8830123 4.4415064h3.3311298v1.7002642 1.6308656h-1.6308656-1.7002642zm4.4415064 0h.6245868 2.706543v2.7065429.6245869h-.6245869-2.7065429v-2.706543zm4.4415059 0h1.630866 1.700264v3.3311298h-3.33113v-1.7002642zm-8.8830123 4.4415059h.5898876 2.7412422v2.706543.624587h-.6245868-2.706543v-2.741242zm4.4415064 0h1.5961664 1.7349634v3.33113h-3.3311298v-1.734963zm4.4415059 0h3.33113v1.665565 1.665565h-1.665565-1.665565z" fill="#bebebe"/></svg>

<?xml version="1.0" encoding="UTF-8" standalone="no"?>
<!-- Created with Inkscape (http://www.inkscape.org/) -->

<svg
   xmlns:dc="http://purl.org/dc/elements/1.1/"
   xmlns:cc="http://creativecommons.org/ns#"
   xmlns:rdf="http://www.w3.org/1999/02/22-rdf-syntax-ns#"
   xmlns:svg="http://www.w3.org/2000/svg"
   xmlns="http://www.w3.org/2000/svg"
   xmlns:xlink="http://www.w3.org/1999/xlink"
   xmlns:sodipodi="http://sodipodi.sourceforge.net/DTD/sodipodi-0.dtd"
   xmlns:inkscape="http://www.inkscape.org/namespaces/inkscape"
   id="svg7384"
   height="16"
   width="16"
   version="1.1"
   inkscape:version="0.92.2 (unknown)"
   sodipodi:docname="ssudoku-symbolic.svg">
  <defs
     id="defs7527">
    <inkscape:perspective
       id="perspective18"
       inkscape:persp3d-origin="8 : 5.3333333 : 1"
       inkscape:vp_z="16 : 8 : 1"
       inkscape:vp_y="0 : 1000 : 0"
       inkscape:vp_x="0 : 8 : 1"
       sodipodi:type="inkscape:persp3d" />
    <linearGradient
       gradientUnits="userSpaceOnUse"
       y2="13.168831"
       x2="5.8043289"
       y1="4.7809148"
       x1="5.8043289"
       gradientTransform="scale(1.1952286,0.83666)"
       id="StandardGradient">
      <stop
         id="stop3389"
         offset="0"
         style="stop-color:#000000;stop-opacity:0.86274511;" />
      <stop
         id="stop3391"
         offset="1"
         style="stop-color:#000000;stop-opacity:0.47058824;" />
    </linearGradient>
    <inkscape:perspective
       sodipodi:type="inkscape:persp3d"
       inkscape:vp_x="0 : 0.5 : 1"
       inkscape:vp_y="0 : 1000 : 0"
       inkscape:vp_z="1 : 0.5 : 1"
       inkscape:persp3d-origin="0.5 : 0.33333333 : 1"
       id="perspective3648" />
    <linearGradient
       y2="13.168831"
       x2="5.8043289"
       y1="4.7809148"
       x1="5.8043289"
       gradientTransform="matrix(-1.1952286,0,0,0.83666,-25,0)"
       gradientUnits="userSpaceOnUse"
       id="linearGradient3627"
       xlink:href="#StandardGradient"
       inkscape:collect="always" />
    <clipPath
       id="clipPath3634"
       clipPathUnits="userSpaceOnUse">
      <path
         id="path3636"
         d="m -20,0 0,16 16,0 0,-16 -16,0 z m 2,4 5,3.34375 L -13,4 -8,7.34375 -8,4 -6,4 -6,12 -8,12 -8,8.65625 -13,12 -13,8.65625 -18,12 -18,4 z"
         style="fill:#ff00ff;fill-opacity:1;stroke:none;display:inline" />
    </clipPath>
    <linearGradient
       y2="13.168831"
       x2="5.8043289"
       y1="4.7809148"
       x1="5.8043289"
       gradientTransform="matrix(-1.1952286,0,0,0.83666,-5,0)"
       gradientUnits="userSpaceOnUse"
       id="linearGradient5025"
       xlink:href="#StandardGradient"
       inkscape:collect="always" />
    <clipPath
       id="clipPath40"
       clipPathUnits="userSpaceOnUse">
      <path
         id="path42"
         d="M 0,500 1024,500 1024,0 0,0 0,500 Z"
         inkscape:connector-curvature="0" />
    </clipPath>
    <clipPath
       id="clipPath18"
       clipPathUnits="userSpaceOnUse">
      <path
         id="path20"
         d="M 0,2743.88 0,0 l 2743.81,0 0,2743.88 -2743.81,0 z"
         inkscape:connector-curvature="0" />
    </clipPath>
  </defs>
  <sodipodi:namedview
     pagecolor="#ffffff"
     bordercolor="#666666"
     borderopacity="1"
     objecttolerance="10"
     gridtolerance="10"
     guidetolerance="10"
     inkscape:pageopacity="0"
     inkscape:pageshadow="2"
     inkscape:window-width="1366"
     inkscape:window-height="716"
     id="namedview7525"
     showgrid="false"
     inkscape:zoom="10.429825"
     inkscape:cx="2.7772672"
     inkscape:cy="4.8499637"
     inkscape:window-x="0"
     inkscape:window-y="27"
     inkscape:window-maximized="1"
     inkscape:current-layer="svg7384" />
  <metadata
     id="metadata90">
    <rdf:RDF>
      <cc:Work
         rdf:about="">
        <dc:format>image/svg+xml</dc:format>
        <dc:type
           rdf:resource="http://purl.org/dc/dcmitype/StillImage" />
        <dc:title>Gnome Symbolic Icon Theme</dc:title>
      </cc:Work>
    </rdf:RDF>
  </metadata>
  <title
     id="title9167">Gnome Symbolic Icon Theme</title>
  <path
     style="opacity:1;fill:#bebebe;fill-opacity:1;stroke:none;stroke-width:1.15546799"
     d="m 0.38351057,0.28375012 c -0.0344086,0.0323385 -0.0674217,0.0653521 -0.0997605,0.0997605 V 15.603477 c 0.0342347,0.03677 0.0631819,0.07834 0.0997605,0.112773 H 15.616489 c 0.03441,-0.03234 0.06742,-0.06535 0.09976,-0.09976 V 0.39652285 c -0.03424,-0.0367666 -0.06318,-0.0783384 -0.09976,-0.11277273 z M 1.8929287,1.8929287 H 3.5584936 5.2240585 V 5.2240585 H 1.8929287 V 3.5584936 Z m 4.4415064,0 H 9.6655649 V 3.6278922 5.2240585 H 8.0693985 6.3344351 Z m 4.4415059,0 h 0.624587 2.706543 V 4.634171 5.2240585 H 13.517184 10.775941 V 2.5175156 Z M 1.8929287,6.3344351 H 5.2240585 V 8.0346993 9.6655649 H 3.5931929 1.8929287 Z m 4.4415064,0 h 0.6245868 2.706543 V 9.040978 9.6655649 H 9.040978 6.3344351 v -2.706543 z m 4.4415059,0 h 1.630866 1.700264 v 3.3311298 h -3.33113 V 7.9653007 Z M 1.8929287,10.775941 h 0.5898876 2.7412422 v 2.706543 0.624587 H 4.5994717 1.8929287 v -2.741242 z m 4.4415064,0 h 1.5961664 1.7349634 v 3.33113 H 6.3344351 v -1.734963 z m 4.4415059,0 h 3.33113 v 1.665565 1.665565 h -1.665565 -1.665565 z"
     id="rect1244"
     inkscape:connector-curvature="0" />
</svg>
